Obsidian/actions/22s/database-change-key.svg

<svg height="22" width="22" xmlns="http://www.w3.org/2000/svg"><g fill="#bebebe" transform="translate(3 -3)"><path d="m4.5 9c-2.49 0-4.5 2.02-4.5 4.5 0 1.221.48724 2.323 1.2734 3.133l2.1231-2.123c-.244-.267-.3965-.619-.3965-1.01 0-.82.67-1.5 1.5-1.5.3901 0 .7414.154 1.0078.398l2.1192-2.119c-.8224-.7955-1.9342-1.2727-3.127-1.279zm9.592 3-3.008 3h.916v2h3v-2h1v-3z"/><path d="m2 17.32v2.68h2.67l6.75-6.75-2.67-2.68zm11.79-6.43c.28-.28.28-.73 0-1.01l-1.67-1.67c-.29-.28-.73-.28-1.01 0l-1.4 1.4 2.67 2.68z"/></g></svg>

<svg xmlns="http://www.w3.org/2000/svg" width="22" height="22" version="1.1">
 <defs>
  <style id="current-color-scheme" type="text/css">
   .ColorScheme-Text { color:#bebebe; } .ColorScheme-Highlight { color:#4285f4; }
  </style>
 </defs>
 <g transform="translate(3,-3)">
  <path style="fill:currentColor" class="ColorScheme-Text" d="M 4.5,9 C 2.01,9 0,11.02 0,13.5 0,14.721 0.48724,15.823 1.2734,16.633 L 3.3965,14.51 C 3.1525,14.243 3,13.891 3,13.5 3,12.68 3.67,12 4.5,12 4.8901,12 5.2414,12.154 5.5078,12.398 L 7.627,10.279 C 6.8046,9.4835 5.6928,9.0063 4.5,9 Z M 14.092,12 11.084,15 H 12 V 17 H 15 V 15 H 16 V 12 Z"/>
  <path style="fill:currentColor" class="ColorScheme-Text" d="M 2,17.32 V 20 H 4.67 L 11.42,13.25 8.75,10.57 Z M 13.79,10.89 C 14.07,10.61 14.07,10.16 13.79,9.88 L 12.12,8.21 C 11.83,7.93 11.39,7.93 11.11,8.21 L 9.71,9.61 12.38,12.29 Z"/>
 </g>
</svg>
